img/vk-icon.svg

<svg width="27" height="15" viewBox="0 0 27 15" fill="none" xmlns="http://www.w3.org/2000/svg">
<path d="M16.138 11.51C17.094 11.201 18.318 13.55 19.621 14.449C20.599 15.13 21.348 14.983 21.348 14.983L24.821 14.933C24.821 14.933 26.636 14.821 25.778 13.379C25.707 13.259 25.275 12.31 23.193 10.357C21.016 8.31404 21.311 8.64504 23.932 5.11304C25.529 2.96004 26.168 1.64504 25.968 1.08504C25.776 0.546037 24.603 0.686037 24.603 0.686037L20.69 0.713037C20.309 0.714037 19.986 0.832037 19.839 1.22804C19.836 1.23204 19.218 2.89404 18.394 4.30704C16.653 7.29604 15.958 7.45504 15.67 7.26804C15.009 6.83504 15.176 5.53104 15.176 4.60404C15.176 1.70704 15.608 0.499037 14.33 0.187037C13.903 0.0830374 13.591 0.0150374 12.502 0.00503741C11.11 -0.0159626 9.92797 0.00503743 9.25797 0.334037C8.81297 0.557037 8.47197 1.04604 8.67897 1.07404C8.93897 1.10904 9.52197 1.23404 9.83397 1.66004C10.235 2.21204 10.223 3.44904 10.223 3.44904C10.223 3.44904 10.452 6.86004 9.68297 7.28304C9.15497 7.57304 8.43297 6.98104 6.87997 4.26704C6.08697 2.87904 5.48797 1.34504 5.48797 1.34504C5.48797 1.34504 5.37197 1.06004 5.16197 0.904037C4.91197 0.719037 4.56197 0.660037 4.56197 0.660037L0.84797 0.684037C0.84797 0.684037 0.28997 0.700037 0.0849697 0.946037C-0.0970303 1.16404 0.0699697 1.61404 0.0699697 1.61404C0.0699697 1.61404 2.97897 8.49504 6.27297 11.961C9.29297 15.143 12.725 14.932 12.725 14.932H14.28C14.28 14.932 14.749 14.878 14.989 14.62C15.213 14.38 15.203 13.929 15.203 13.929C15.203 13.929 15.172 11.82 16.138 11.51Z" fill="white"/>
</svg>

<svg width="27" height="15" fill="none" xmlns="http://www.w3.org/2000/svg"><path d="M16.1 11.5c1-.3 2.2 2 3.5 3 1 .6 1.7.5 1.7.5h3.5s1.8-.2 1-1.6c0-.1-.5-1-2.6-3-2.2-2-1.9-1.8.7-5.3 1.6-2.1 2.3-3.5 2-4-.1-.6-1.3-.4-1.3-.4h-4c-.3 0-.6.1-.8.5 0 0-.6 1.7-1.4 3.1-1.7 3-2.4 3.2-2.7 3-.7-.5-.5-1.8-.5-2.7 0-2.9.4-4.1-.9-4.4-.4-.1-.7-.2-1.8-.2-1.4 0-2.6 0-3.2.3-.5.3-.8.7-.6.8.2 0 .8.1 1.1.6.4.5.4 1.7.4 1.7s.3 3.5-.5 3.9c-.5.3-1.3-.3-2.8-3-.8-1.4-1.4-3-1.4-3L5.2 1 4.6.7H.8S.3.7.1.9c-.2.3 0 .7 0 .7S3 8.5 6.3 12c3 3.1 6.4 3 6.4 3h1.6s.4-.1.7-.4c.2-.2.2-.7.2-.7s0-2 1-2.4z" fill="#fff"/></svg>
